X: 37681
T: Snuff Wife, The
R: jig
M: 6/8
K: Amixolydian
|:{Bc}d2c BGB|BGB BGB|d2c BGB|~A3 c2A|
{Bc}d2c BGB|BGB Bcd|{f}e2d cBc|1 ~A3 cBA:|2 ~A3 AcA||
|:Bcd dGd|BdB dBd|cAc BGB|~A3 cBA|
Bcd dGd|BGB Bcd|{f}e2d cBc|1 ~A3 AcA:|2 ~A3 d2f||
|:ecA ecA|ecA eAe|fdf ece|~d3 fed|
ecA ecA|ecA efg|agf gfe|1 dcd fgf:|2 dcd fed||
|:efg gfg|efg ge/f/g|fdf ece|~d3 fed|
efg gfg|eBe efg|agf gfe|1 dcd fed:|2 dcd fec||

